resources/haticons/SVG/book-my-show.svg

<!-- Generated by IcoMoon.io -->
<svg version="1.1" xmlns="http://www.w3.org/2000/svg" width="24" height="24" viewBox="0 0 24 24">
<title>book-my-show</title>
<path d="M18.9 24l-6.375-1.875c0.15-0.45 0.6-2.85-2.1-3.975-2.925-0.825-4.050 1.425-4.275 2.1l-6.15-1.95 5.175-16.425 2.4-1.125 1.35 2.25 2.4-1.125 1.35 2.25 2.4-1.125 1.35 2.25 2.4-1.125 1.35 2.25 2.475-1.125 1.35 2.25-5.1 16.5zM11.55 7.65h-6.15s-0.6 0-0.6 0.675v7.8s-0.075 0.825 0.75 0.825c0.75 0 0.6-0.825 0.6-0.825v-7.2h2.55v7.275s0.075 0.75 0.75 0.75 0.6-0.75 0.6-0.75v-7.275h1.5s1.050 0 1.050 1.275v5.925s0 0.75 0.75 0.75 0.6-0.825 0.6-0.825v-5.925c0 0.075 0.075-2.325-2.4-2.475zM20.55 7.575c-0.825-0.225-0.9 0.525-0.9 0.525l-1.65 5.475-1.725-5.475s-0.15-0.75-0.9-0.45c-0.6 0.225-0.375 0.825-0.375 0.825l2.25 7.5-0.6 2.175s-0.15 0.75-0.9 0.975c-1.050 0.075-1.050 0.75-1.050 0.75s-0.075 0.975 1.35 0.6c1.425-0.375 1.8-1.725 1.8-1.725l3.15-10.275c-0.075-0.075 0.075-0.825-0.45-0.9z"></path>
</svg>

<svg xmlns="http://www.w3.org/2000/svg" width="24" height="24"><path d="M18.9 24l-6.375-1.875c.15-.45.6-2.85-2.1-3.975-2.925-.825-4.05 1.425-4.275 2.1L0 18.3 5.175 1.875 7.575.75 8.925 3l2.4-1.125 1.35 2.25L15.075 3l1.35 2.25 2.4-1.125 1.35 2.25L22.65 5.25 24 7.5 18.9 24zM11.55 7.65H5.4s-.6 0-.6.675v7.8s-.075.825.75.825c.75 0 .6-.825.6-.825v-7.2H8.7V16.2s.075.75.75.75.6-.75.6-.75V8.925h1.5s1.05 0 1.05 1.275v5.925s0 .75.75.75.6-.825.6-.825v-5.925c0 .075.075-2.325-2.4-2.475zm9-.075c-.825-.225-.9.525-.9.525L18 13.575 16.275 8.1s-.15-.75-.9-.45c-.6.225-.375.825-.375.825l2.25 7.5-.6 2.175s-.15.75-.9.975c-1.05.075-1.05.75-1.05.75s-.075.975 1.35.6 1.8-1.725 1.8-1.725L21 8.475c-.075-.075.075-.825-.45-.9z"/></svg>
